X:85
T:score173
L:1/8
Q:1/4=96
M:4/4
I:linebreak $
K:C
!f! (.g3 e c.G).G.G | (=g3 e (c/)d/e/f/ g/a/b/c'/ |$ b.a).a.a (b/a/^g/a/ .c').a | %3
 (^f.g).g.g g2 z2 |!p! .f.f.e.e d2 z2 |$ .g.g.f.f e2 z2 | (a/f/e/d/ a/f/e/d/ e/g/e/c/ d/f/d/B/ | %7
 .c).c.d.d e z z2 |$ .F.F.E.E D2 z2 |"_cresc." .G.G.B.B .c.c.^c.c |!f! .d.d.f.f .e.e.d.d |$ %11
 .c2 .c'2 .c'2 z2 |] %12
